icons/branch-cross.svg

<svg xmlns="http://www.w3.org/2000/svg" viewBox="0 0 24 24" fill="currentColor">
  <path d="M4 2.44995c.41421 0 .75.33579.75.75V6.75h2.53694C7.50285 5.44838 8.63895 4.44995 10 4.44995h8c1.5142 0 2.75 1.23579 2.75 2.75v1C20.75 9.71416 19.5142 10.95 18 10.95h-8c-1.4975 0-2.72268-1.2087-2.74955-2.7H4.75v5.45c0 .6857.56421 1.25 1.25 1.25h1.26131c.12707-1.398 1.30873-2.5 2.73869-2.5h8c1.5142 0 2.75 1.2357 2.75 2.75 0 .4142-.3358.75-.75.75s-.75-.3358-.75-.75c0-.6858-.5642-1.25-1.25-1.25h-8c-.68579 0-1.25.5642-1.25 1.25v1c0 .6857.56421 1.25 1.25 1.25.4142 0 .75.3357.75.75 0 .4142-.3358.75-.75.75-1.42996 0-2.61162-1.1021-2.73869-2.5H6c-1.51421 0-2.75-1.2358-2.75-2.75V3.19995c0-.41421.33579-.75.75-.75ZM8.75 7.5v.69995c0 .68579.56421 1.25 1.25 1.25h8c.6858 0 1.25-.56421 1.25-1.25v-1c0-.68579-.5642-1.25-1.25-1.25h-8c-.68579 0-1.25.56421-1.25 1.25V7.5Zm8.8803 10.4302c.2929-.2929.2929-.7677 0-1.0606-.2929-.2929-.7678-.2929-1.0607 0L15.4 18.0392l-1.1697-1.1696c-.2929-.2929-.7678-.2929-1.0607 0-.2929.2929-.2929.7677 0 1.0606l1.1697 1.1697-1.1697 1.1697c-.2929.2929-.2929.7677 0 1.0606.2929.2929.7678.2929 1.0607 0L15.4 20.1606l1.1696 1.1696c.2929.2929.7678.2929 1.0607 0 .2929-.2929.2929-.7677 0-1.0606l-1.1697-1.1697 1.1697-1.1697Z"/>
</svg>

<svg width="24" height="24" viewBox="0 0 24 24" fill="none" xmlns="http://www.w3.org/2000/svg">
<path fill-rule="evenodd" clip-rule="evenodd" d="M4 2.44995C4.41421 2.44995 4.75 2.78574 4.75 3.19995V6.75H7.28694C7.50285 5.44838 8.63895 4.44995 10 4.44995H18C19.5142 4.44995 20.75 5.68574 20.75 7.19995V8.19995C20.75 9.71416 19.5142 10.95 18 10.95H10C8.5025 10.95 7.27732 9.7413 7.25045 8.25H4.75V13.7C4.75 14.3857 5.31421 14.95 6 14.95H7.26131C7.38838 13.552 8.57004 12.45 10 12.45H18C19.5142 12.45 20.75 13.6857 20.75 15.2C20.75 15.6142 20.4142 15.95 20 15.95C19.5858 15.95 19.25 15.6142 19.25 15.2C19.25 14.5142 18.6858 13.95 18 13.95H10C9.31421 13.95 8.75 14.5142 8.75 15.2V15.7V16.2C8.75 16.8857 9.31421 17.45 10 17.45C10.4142 17.45 10.75 17.7857 10.75 18.2C10.75 18.6142 10.4142 18.95 10 18.95C8.57004 18.95 7.38838 17.8479 7.26131 16.45H6C4.48579 16.45 3.25 15.2142 3.25 13.7V7.5V3.19995C3.25 2.78574 3.58579 2.44995 4 2.44995ZM8.75 7.5V8.19995C8.75 8.88574 9.31421 9.44995 10 9.44995H18C18.6858 9.44995 19.25 8.88574 19.25 8.19995V7.19995C19.25 6.51416 18.6858 5.94995 18 5.94995H10C9.31421 5.94995 8.75 6.51416 8.75 7.19995V7.5ZM17.6303 17.9302C17.9232 17.6373 17.9232 17.1625 17.6303 16.8696C17.3374 16.5767 16.8625 16.5767 16.5696 16.8696L15.4 18.0392L14.2303 16.8696C13.9374 16.5767 13.4625 16.5767 13.1696 16.8696C12.8767 17.1625 12.8767 17.6373 13.1696 17.9302L14.3393 19.0999L13.1696 20.2696C12.8767 20.5625 12.8767 21.0373 13.1696 21.3302C13.4625 21.6231 13.9374 21.6231 14.2303 21.3302L15.4 20.1606L16.5696 21.3302C16.8625 21.6231 17.3374 21.6231 17.6303 21.3302C17.9232 21.0373 17.9232 20.5625 17.6303 20.2696L16.4606 19.0999L17.6303 17.9302Z" fill="black"/>
</svg>
